X:677
T:Willafjord #3
C:Joe Buchanan's Scottish Tome - Page 208.3
I:208 3
Z:Carl Allison
R:Reel
R:March
L:1/8
M:4/4
K:D
B | "D"A2 FA- "D/F#"ADFG | "G"B2 GB- BDGB | "D"A2 FA- ADF | "Em"EFGA "A7"GFED |
"D"A2 FA- "D/F#"ADFG | "G"B2 GB- BDGB | "A7"ABcd efge | "D"f2 "G"d2 "D"d2 :|
e | "D"f2 df- ffdf | "Em"geaf gfeg | "D"f2 df- fAdf | "A7"e2 ce- eAce |
"D"f2 df- ffdf | "Em"geaf gfed | "A7"ABcd efge | "D"f2 d2 d2 :|

